X: 45
T:Morning Dew, The
M:C|
L:1/8
R:Reel
K:Em

~E3B BAFA|EBEB AGFD|~E3B BAFA|B^cdB AGFD|
~E3B BAFA|EBEB AGFD|~E3B BAFA|B^cdB ADFA||
B2eB fBeB|B2dB ADFA|B2eB fBeB|dedB ADFA|
B2eB fBeB|B2dB ADFA|(3B^cd ef gfge|d^cdB ADFA||
BAGF EFGA|BEGB ADFA|BAGF EFGA|B^cdB ADFA|
BAGF EFGA|B2EB ADFA|BAGF EFGA|B^cdB AGFD||


"Variation 3.Teil"

B2EB GBEB|B2EB ADFA|B2EB GBEB|B^cdB ADFA|
B2EB GBEB|B2EB ADFA|B2EB GBEB|B^cdB AGFD||

